X: 5382
T: Bucks Of Oranmore, The
R: reel
M: 4/4
K: Dmajor
dB|A2 A2 A2 A2|AFAB ^D3B|A2FA A2Bd|(3efg fd (3gfe dB|
A2FA A2dB|A2FA B^D^D2|DEFG A3B|defd efdB||
AD D2 AD D2|AD D2 B^D ^D2|AD D2 A3B|defd efdB|
AD D2 AD D2|AD D2 B^D^D2|DEFG A3B|defd efdf||
{b}a{b}a fd (3gfe df|adfd ed (3Bcd|Adfd edfd|(3gfe fd ed (3Bcd|
{b}a{b}a fd (3gfe df|adfd ed (3Bcd|fa a2 (3bag af|(3gfe fd edBd|
fAdf eAde|fAdf edBd|fAdf eAdf|(3gfe fd ed (3Bcd|
fAdf eAde|fAdf edBd|fa a2 (3bag af|(3gfe fd ed (3Bcd||
Adfd edfd|(3Bcd fd ed (3Bcd|Adfd edfd|^d=dfd ed (3Bcd|
Adfd edfd|Adfd ed (3Bcd|fa a2 (3bag af|(3gfe fd ed (3Bcd||

